svg/Pictogram/pictograms-nps-misc-walk_on_boardwalk.svg

<?xml version="1.0" encoding="UTF-8" standalone="no"?>
<!-- Created with Inkscape (http://www.inkscape.org/) -->
<svg
   xmlns:dc="http://purl.org/dc/elements/1.1/"
   xmlns:cc="http://creativecommons.org/ns#"
   xmlns:rdf="http://www.w3.org/1999/02/22-rdf-syntax-ns#"
   xmlns:svg="http://www.w3.org/2000/svg"
   xmlns="http://www.w3.org/2000/svg"
   xmlns:sodipodi="http://sodipodi.sourceforge.net/DTD/sodipodi-0.dtd"
   xmlns:inkscape="http://www.inkscape.org/namespaces/inkscape"
   width="256"
   height="256"
   id="svg5294"
   sodipodi:version="0.32"
   inkscape:version="0.46"
   version="1.0"
   sodipodi:docname="pictograms-nps-misc-walk_on_boardwalk-2.svg"
   inkscape:output_extension="org.inkscape.output.svg.inkscape">
  <defs
     id="defs5296">
    <inkscape:perspective
       sodipodi:type="inkscape:persp3d"
       inkscape:vp_x="0 : 526.18109 : 1"
       inkscape:vp_y="0 : 1000 : 0"
       inkscape:vp_z="744.09448 : 526.18109 : 1"
       inkscape:persp3d-origin="372.04724 : 350.78739 : 1"
       id="perspective5302" />
  </defs>
  <sodipodi:namedview
     id="base"
     pagecolor="#ffffff"
     bordercolor="#666666"
     borderopacity="1.0"
     gridtolerance="10000"
     guidetolerance="10"
     objecttolerance="10"
     inkscape:pageopacity="0.0"
     inkscape:pageshadow="2"
     inkscape:zoom="0.98994949"
     inkscape:cx="112.80911"
     inkscape:cy="62.857143"
     inkscape:document-units="px"
     inkscape:current-layer="layer1"
     showgrid="false"
     inkscape:window-width="725"
     inkscape:window-height="674"
     inkscape:window-x="1"
     inkscape:window-y="309" />
  <metadata
     id="metadata5299">
    <rdf:RDF>
      <cc:Work
         rdf:about="">
        <dc:format>image/svg+xml</dc:format>
        <dc:type
           rdf:resource="http://purl.org/dc/dcmitype/StillImage" />
      </cc:Work>
    </rdf:RDF>
  </metadata>
  <g
     inkscape:label="Layer 1"
     inkscape:groupmode="layer"
     id="layer1">
    <g
       id="g6028"
       transform="matrix(25.882115,0,0,-25.882115,30.584792,5.1919523)">
      <path
         d="M 0,0 C -0.541,0 -0.981,-0.44 -0.981,-0.981 L -0.981,-8.509 C -0.981,-9.05 -0.541,-9.49 0,-9.49 L 7.527,-9.49 C 8.068,-9.49 8.509,-9.05 8.509,-8.509 L 8.509,-0.981 C 8.509,-0.44 8.068,0 7.527,0 L 0,0 z"
         style="fill:#ffffff;fill-opacity:1;fill-rule:nonzero;stroke:none"
         id="path6030" />
    </g>
    <g
       id="g6032"
       transform="matrix(25.882115,0,0,-25.882115,225.40734,256)">
      <path
         d="M 0,0 C 0.652,0 1.182,0.529 1.182,1.182 L 1.182,8.709 C 1.182,9.361 0.652,9.891 0,9.891 L -7.527,9.891 C -8.18,9.891 -8.709,9.361 -8.709,8.709 L -8.709,1.182 C -8.709,0.529 -8.18,0 -7.527,0 L 0,0 z"
         style="fill:#000000;fill-opacity:1;fill-rule:nonzero;stroke:none"
         id="path6034" />
    </g>
    <g
       id="g6036"
       transform="matrix(25.882115,0,0,-25.882115,132.74647,45.759579)">
      <path
         d="M 0,0 C 0.283,-0.023 0.529,0.188 0.553,0.471 C 0.574,0.754 0.363,1 0.08,1.023 C -0.201,1.045 -0.449,0.834 -0.471,0.551 C -0.494,0.27 -0.283,0.021 0,0"
         style="fill:#ffffff;fill-opacity:1;fill-rule:nonzero;stroke:none"
         id="path6038" />
    </g>
    <g
       id="g6040"
       transform="matrix(25.882115,0,0,-25.882115,121.4747,51.217807)">
      <path
         d="M 0,0 C 0.102,0.07 0.225,0.117 0.361,0.105 C 0.537,0.092 0.682,-0.018 0.77,-0.15 L 1.287,-1.178 L 1.994,-1.664 C 2.055,-1.711 2.092,-1.785 2.084,-1.867 C 2.074,-1.994 1.963,-2.09 1.836,-2.078 C 1.797,-2.076 1.766,-2.061 1.73,-2.045 L 0.959,-1.514 C 0.936,-1.494 0.916,-1.471 0.9,-1.445 L 0.707,-1.061 L 0.475,-2.084 L 1.385,-3.16 C 1.406,-3.193 1.42,-3.232 1.428,-3.271 L 1.674,-4.57 C 1.672,-4.6 1.676,-4.617 1.674,-4.641 C 1.66,-4.834 1.492,-4.975 1.301,-4.961 C 1.143,-4.947 1.025,-4.83 0.988,-4.686 L 0.756,-3.469 L 0.016,-2.658 L -0.156,-3.447 C -0.162,-3.484 -0.211,-3.563 -0.225,-3.594 L -0.936,-4.791 C -1.006,-4.9 -1.125,-4.971 -1.26,-4.959 C -1.453,-4.945 -1.596,-4.777 -1.58,-4.586 C -1.576,-4.531 -1.553,-4.475 -1.533,-4.436 L -0.873,-3.328 L -0.322,-0.889 L -0.682,-1.18 L -0.873,-2.049 C -0.898,-2.16 -1,-2.252 -1.119,-2.242 C -1.248,-2.232 -1.342,-2.121 -1.332,-1.992 C -1.332,-1.982 -1.33,-1.973 -1.328,-1.961 L -1.102,-0.947 C -1.088,-0.904 -1.064,-0.865 -1.031,-0.836 L 0,0 z"
         style="fill:#ffffff;fill-opacity:1;fill-rule:nonzero;stroke:none"
         id="path6042" />
    </g>
    <path
       d="M 76.522854,237.60817 L 59.233601,237.60817 L 59.233601,213.14957 L 76.522854,213.14957 L 76.522854,237.60817 z"
       style="fill:#ffffff;fill-opacity:1;fill-rule:nonzero;stroke:none"
       id="path6044" />
    <path
       d="M 196.64175,237.60817 L 179.3525,237.60817 L 179.3525,213.14957 L 196.64175,213.14957 L 196.64175,237.60817 z"
       style="fill:#ffffff;fill-opacity:1;fill-rule:nonzero;stroke:none"
       id="path6046" />
    <path
       d="M 43.523158,203.08143 L 22.455116,203.08143 L 22.455116,191.40859 L 43.523158,191.40859 L 43.523158,203.08143 z"
       style="fill:#ffffff;fill-opacity:1;fill-rule:nonzero;stroke:none"
       id="path6048" />
    <path
       d="M 205.85578,203.08143 L 184.78774,203.08143 L 184.78774,191.40859 L 205.85578,191.40859 L 205.85578,203.08143 z"
       style="fill:#ffffff;fill-opacity:1;fill-rule:nonzero;stroke:none"
       id="path6050" />
    <path
       d="M 233.54965,203.08143 L 212.4816,203.08143 L 212.4816,191.40859 L 233.54965,191.40859 L 233.54965,203.08143 z"
       style="fill:#ffffff;fill-opacity:1;fill-rule:nonzero;stroke:none"
       id="path6052" />
    <path
       d="M 178.80897,203.08143 L 157.74093,203.08143 L 157.74093,191.40859 L 178.80897,191.40859 L 178.80897,203.08143 z"
       style="fill:#ffffff;fill-opacity:1;fill-rule:nonzero;stroke:none"
       id="path6054" />
    <path
       d="M 151.76216,203.08143 L 130.69412,203.08143 L 130.69412,191.40859 L 151.76216,191.40859 L 151.76216,203.08143 z"
       style="fill:#ffffff;fill-opacity:1;fill-rule:nonzero;stroke:none"
       id="path6056" />
    <path
       d="M 124.66359,203.08143 L 103.62143,203.08143 L 103.62143,191.40859 L 124.66359,191.40859 L 124.66359,203.08143 z"
       style="fill:#ffffff;fill-opacity:1;fill-rule:nonzero;stroke:none"
       id="path6058" />
    <path
       d="M 97.616778,203.08143 L 76.574619,203.08143 L 76.574619,191.40859 L 97.616778,191.40859 L 97.616778,203.08143 z"
       style="fill:#ffffff;fill-opacity:1;fill-rule:nonzero;stroke:none"
       id="path6060" />
    <path
       d="M 70.569968,203.08143 L 49.527808,203.08143 L 49.527808,191.40859 L 70.569968,191.40859 L 70.569968,203.08143 z"
       style="fill:#ffffff;fill-opacity:1;fill-rule:nonzero;stroke:none"
       id="path6062" />
  </g>
</svg>

<svg xmlns="http://www.w3.org/2000/svg" viewBox="0 0 256 256"><path d="m0 0c-.541 0-.981-.44-.981-.981v-7.528c0-.541.44-.981.981-.981h7.527c.541 0 .982.44.982.981v7.528c0 .541-.441.981-.982.981h-7.527" fill="#fff" transform="matrix(25.88211 0 0-25.88211 30.585 5.192)"/><path d="m0 0c.652 0 1.182.529 1.182 1.182v7.527c0 .652-.53 1.182-1.182 1.182h-7.527c-.653 0-1.182-.53-1.182-1.182v-7.527c0-.653.529-1.182 1.182-1.182h7.527" transform="matrix(25.88211 0 0-25.88211 225.41 256)"/><g fill="#fff"><path d="m0 0c.283-.023.529.188.553.471.021.283-.19.529-.473.552-.281.022-.529-.189-.551-.472-.023-.281.188-.53.471-.551" transform="matrix(25.88211 0 0-25.88211 132.75 45.76)"/><path d="m0 0c.102.07.225.117.361.105.176-.013.321-.123.409-.255l.517-1.028.707-.486c.061-.047.098-.121.09-.203-.001-.127-.121-.223-.248-.211-.039.002-.07.017-.106.033l-.771.531c-.023.02-.043.043-.059.069l-.193.384-.232-1.023.91-1.076c.021-.033.035-.072.043-.111l.246-1.299c-.002-.03.002-.047 0-.071-.014-.193-.182-.334-.373-.32-.158.014-.276.131-.313.275l-.232 1.217-.74.811-.172-.789c-.006-.037-.055-.116-.069-.147l-.711-1.197c-.07-.109-.189-.18-.324-.168-.193.014-.336.182-.32.373.004.055.027.111.047.15l.66 1.108.551 2.439-.36-.291-.191-.869c-.025-.111-.127-.203-.246-.193-.129.001-.223.121-.213.25 0 .001.002.019.004.031l.226 1.014c.014.043.038.082.071.111l1.031.836" transform="matrix(25.88211 0 0-25.88211 121.47 51.22)"/><path d="m76.52 237.61h-17.289v-24.459h17.289v24.459"/><path d="m196.64 237.61h-17.289v-24.459h17.289v24.459"/><path d="m43.523 203.08h-21.07v-11.673h21.07v11.673"/><path d="m205.86 203.08h-21.07v-11.673h21.07v11.673"/><path d="m233.55 203.08h-21.07v-11.673h21.07v11.673"/><path d="m178.81 203.08h-21.07v-11.673h21.07v11.673"/><path d="m151.76 203.08h-21.07v-11.673h21.07v11.673"/><path d="m124.66 203.08h-21.04v-11.673h21.04v11.673"/><path d="m97.62 203.08h-21.04v-11.673h21.04v11.673"/><path d="m70.57 203.08h-21.04v-11.673h21.04v11.673"/></g></svg>
